packages/dnb-eufemia/assets/icons/leaf.svg

<svg width="16" height="16" viewBox="0 0 16 16" fill="none" xmlns="http://www.w3.org/2000/svg">
<path d="M1 12.53L2.69172 11.0628M2.69172 11.0628C2.91784 11.5376 3.22209 11.9752 3.59612 12.3553C4.47481 13.2481 5.66659 13.7498 6.90932 13.75C10.8439 13.75 16.0253 9.66845 14.8233 2.51736C14.8145 2.46477 14.7928 2.41528 14.7602 2.3735C14.7276 2.33172 14.685 2.29901 14.6366 2.27842C14.5889 2.25544 14.536 2.24612 14.4835 2.25147C14.4309 2.25681 14.3808 2.27663 14.3386 2.30876C10.4015 5.62862 2.2238 2.08436 2.2238 8.98893C2.2238 9.71409 2.38663 10.4222 2.69172 11.0628ZM2.69172 11.0628C4.13465 9.81252 5.73719 8.81261 7.5 8.13941" stroke="black" stroke-width="1.5" stroke-linecap="round" stroke-linejoin="round"/>
</svg>

<svg width="16" height="16" viewBox="0 0 16 16" fill="none" xmlns="http://www.w3.org/2000/svg"><path d="m1 12.53 1.692-1.467m0 0c.226.475.53.912.904 1.292A4.65 4.65 0 0 0 6.91 13.75c3.935 0 9.116-4.082 7.914-11.233a.32.32 0 0 0-.34-.266.287.287 0 0 0-.144.058c-3.94 3.32-12.116-.225-12.116 6.68 0 .725.163 1.433.468 2.074Zm0 0c1.443-1.25 3.045-2.25 4.808-2.924" stroke="#000" stroke-width="1.5" stroke-linecap="round" stroke-linejoin="round"/></svg>
